X: 3096
T: The LEA RIG
Q:"Reel."
R: Reel.
%R:reel
B: James Kerr "Merry Melodies" v.3 p.12 #96
Z: 2016 John Chambers <jc:trillian.mit.edu>
M: C
L: 1/8
K: A
uc |\
(AF)EF A2AB | (A/B/c) (BA) BFFB |\
AFEF ABce | faef cAA :: f |\
(ef/g/) ae (fe)ae |
B/B/B (BA) BFFB |\
[1 AFEF A2(Aa) | f2(ec) eAA :|\
[2 AFEF ABce | faef cAA |]

%%sep 1 1 500
%%sep 1 1 500

